img/icon-contact-email.svg

<svg width="31" height="30" viewBox="0 0 31 30" fill="none" xmlns="http://www.w3.org/2000/svg">
<path d="M13.6427 0.0958421C6.8826 0.850647 1.39222 6.22275 0.50316 12.9724C-0.756524 22.5372 7.05612 30.6745 16.5193 29.9557C20.0004 29.6913 23.2588 28.1343 25.8119 25.7511L26.0312 25.5465C26.2834 25.3111 26.2972 24.9156 26.062 24.6631L25.2099 23.7487C24.9747 23.4962 24.5796 23.4824 24.3273 23.7178L23.8705 24.1442C21.0307 26.7945 17.1322 27.9869 13.1995 27.3166C7.62549 26.3664 3.34052 21.6299 2.90527 15.9873C2.32976 8.52584 8.34308 2.29059 15.7261 2.50533C22.5337 2.70344 27.8446 8.51799 27.8446 15.3346V16.25C27.8446 17.7109 26.5868 18.8827 25.0978 18.7378C23.8002 18.6115 22.8491 17.4442 22.8491 16.1392V10.625C22.8491 10.2798 22.5695 10 22.2247 10H20.9758C20.7251 10 20.5121 10.15 20.4128 10.3635C19.1562 8.9916 17.3575 8.125 15.3559 8.125C11.5684 8.125 8.48709 11.2091 8.48709 15C8.48709 18.7909 11.5684 21.875 15.3559 21.875C17.7417 21.875 19.8454 20.6499 21.0772 18.7965C22.0046 20.3478 23.7277 21.3701 25.6891 21.2385C28.3411 21.0607 30.3424 18.7339 30.3424 16.0735V15C30.3424 6.16416 22.6695 -0.912087 13.6427 0.0958421ZM15.3559 19.375C12.9459 19.375 10.9848 17.4121 10.9848 15C10.9848 12.5879 12.9459 10.625 15.3559 10.625C17.7658 10.625 19.727 12.5879 19.727 15C19.727 17.4121 17.7658 19.375 15.3559 19.375Z" fill="#003333"/>
</svg>

<?xml version="1.0" encoding="utf-8"?>
<!-- Generator: Adobe Illustrator 23.0.1, SVG Export Plug-In . SVG Version: 6.00 Build 0)  -->
<svg version="1.1" id="Слой_1" xmlns="http://www.w3.org/2000/svg" xmlns:xlink="http://www.w3.org/1999/xlink" x="0px" y="0px"
	 viewBox="0 0 31 30" style="enable-background:new 0 0 31 30;" xml:space="preserve">
<style type="text/css">
	.st0{fill:#FAFAFA;}
</style>
<path class="st0" d="M13.6,0.1C6.9,0.9,1.4,6.2,0.5,13c-1.3,9.6,6.6,17.7,16,17c3.5-0.3,6.7-1.8,9.3-4.2l0.2-0.2
	c0.3-0.2,0.3-0.6,0-0.9l-0.9-0.9c-0.2-0.3-0.6-0.3-0.9,0l-0.5,0.4c-2.8,2.7-6.7,3.8-10.7,3.2c-5.6-1-9.9-5.7-10.3-11.3
	C2.3,8.5,8.3,2.3,15.7,2.5c6.8,0.2,12.1,6,12.1,12.8v0.9c0,1.5-1.3,2.6-2.7,2.5c-1.3-0.1-2.2-1.3-2.2-2.6v-5.5
	c0-0.3-0.3-0.6-0.6-0.6H21c-0.3,0-0.5,0.1-0.6,0.4c-1.3-1.4-3.1-2.2-5.1-2.2c-3.8,0-6.9,3.1-6.9,6.9s3.1,6.9,6.9,6.9
	c2.4,0,4.5-1.2,5.7-3.1c0.9,1.6,2.7,2.6,4.6,2.4c2.7-0.2,4.7-2.5,4.7-5.2V15C30.3,6.2,22.7-0.9,13.6,0.1z M15.4,19.4
	c-2.4,0-4.4-2-4.4-4.4s2-4.4,4.4-4.4c2.4,0,4.4,2,4.4,4.4S17.8,19.4,15.4,19.4z"/>
</svg>
